X: 1
T: Saddle The Turkey
R: jig
M: 6/8
L: 1/8
K: Gmaj
|(4Ggfe (4dcBA | (4Ggfe (4dcBA ||
D|GBA G2B|def gdB|GBA G2B|AFD AFD|
GBA G2B|def gfg|efe dBA|BGG G2:||
d|efe edB|def gfg|efe edB|dBA ABd|
efe edB|def gfg|efe dBA|BGG G2:||
